img/facebook.svg

<svg width="76" height="77" viewBox="0 0 76 77" fill="none" xmlns="http://www.w3.org/2000/svg">
<path d="M-0.000183105 0.874512H75.9998V76.8745H-0.000183105V0.874512Z" fill="white"/>
<path fill-rule="evenodd" clip-rule="evenodd" d="M37.9998 0.874512C17.013 0.874512 -0.000183105 17.8877 -0.000183105 38.8745C-0.000183105 59.8613 17.013 76.8745 37.9998 76.8745C58.9866 76.8745 75.9998 59.8613 75.9998 38.8745C75.9998 17.8877 58.9866 0.874512 37.9998 0.874512ZM41.9606 40.5437V61.2177H33.4067V40.5445H29.1332V33.4201H33.4067V29.1427C33.4067 23.3306 35.8198 19.8745 42.6757 19.8745H48.3834V26.9997H44.8157C42.1469 26.9997 41.9703 27.9953 41.9703 29.8535L41.9606 33.4193H48.4238L47.6675 40.5437H41.9606Z" fill="#FD848D"/>
</svg>

<svg width="76" height="77" fill="none" xmlns="http://www.w3.org/2000/svg"><path d="M0 .875h76v76H0v-76z" fill="#fff"/><path fill-rule="evenodd" clip-rule="evenodd" d="M38 .875c-20.987 0-38 17.013-38 38 0 20.986 17.013 38 38 38s38-17.014 38-38c0-20.987-17.013-38-38-38zm3.96 39.669v20.674h-8.553V40.544h-4.274V33.42h4.274v-4.277c0-5.812 2.413-9.268 9.269-9.268h5.707V27h-3.567c-2.67 0-2.846.995-2.846 2.854l-.01 3.565h6.464l-.757 7.125h-5.706z" fill="#FD848D"/></svg>
